X:1
T:Семь сорок
T:Семь сорок
%%score 1 2 3
L:1/8
Q:1/4=150
M:4/4
K:C
V:1 treble transpose=-2 nm="Си♭ Кларнет" snm="Си♭ Кл."
V:2 treble-8 nm="Классическая гитара" snm="Гит."
V:3 bass-8 nm="Бас-гитара" snm="Б.-гит."
V:1
[K:D] F^G^A |"_Am" B2 =A2 =G2 F2 |"_Am" B2 A2 G2 F2 |"_Am" B2 A2 G2 F2 |"_Am" B2 A2"_E7" GF^G^A |: %5
S"_Am" B2 FB FBFB |"_Am" d2 Bd BdBd |"_Am" f2 df"_Dm" e2 ce |1"_Am" d2 Bd"_E7" c2 f2 :|2 %9
"_Am" d2"_E7" c2"_Am" B2"_G" A2 |:"_C" z fga gfed |"_C" z fga gfed |"_C" z fga"_A7" bagf | %13
"_Dm" e2 gf e4 |"_G7" z efg agfe |"_C" d2 fe d3 f- |"_E" f^eed"_E7" dccB |1"_Am" B6"_G" A2 :|2 %18
"_Am" B6 z2 |:"_Am" F6 EF |"_Am" ED- D6 |"_Am" F F2 F GFED |"_E7" E4- EF,^A,C |"_E7" E6 DE | %24
"_E7" DC- C6 |"_E7" E E2 E FEDC |1"_Am" D4- DF,B,D :|2"_Am" B,4- B,B,CD |:"_Am" EDCB, EDCB, | %29
"_Am" ^E F4 B,CD |"_Am" EDCB, EDCD |"_Am" F,4- F,B,CD |"_Am" EDCB, EDCB, |"_Dm" E4"_D# dim" ^E4 | %34
"_E" F^EED"_E7" DCCB, |1"_Am" B,4- B,B,CD :|2"_Am" B,8 |:"_Am" BB^AB F3 B |"_Am" z B^AB F4 | %39
"_Am" Bcdc BAGF |"_Dm" GGFG E3 G |"_Dm" z GFG E3 G |"_Dm" z GFG E4 |"_E7" ^ABcB AGFE | %44
"_E7" F2 E2 D2 C2!D.S.!!dacoda! :|O B,8 |] %46
V:2
 z2 z | z [EAc] z [EAc] z [EAc] z [EAc] | z [EAc] z [EAc] z [EAc] z [EAc] | %3
 z [EAc] z [EAc] z [EAc] z [EAc] | z [EAc] z [EAc] z [E^GB] z [EGBd] |: %5
 z [A,CEA] z [A,CEA] z [A,CEA] z [A,CEA] | z [A,CEA] z [A,CEA] z [A,CEA] z [A,CEA] | %7
 z [A,CEA] z [A,CEA] z [DFAd] z [DFAd] |1 z [A,CEA] z [A,CEA] z [B,E^GB] z [B,EGB] :|2 %9
 z [A,CEA] z [B,E^GB] z [A,CEA] z [G,B,D=G] |: z [G,CEG] z [G,CEG] z [G,CEG] z [G,CEG] | %11
 z [G,CEG] z [G,CEG] z [G,CEG] z [G,CEG] | z [G,CEG] z [G,CEG] z [A,^CEG] z [A,CEG] | %13
 z [DFAd] z [DFAd] z [DFAd] z [DFAd] | z [G,B,DF] z [G,B,DF] z [G,B,DF] z [G,B,DF] | %15
 z [CEGc] z [CEGc] z [CEGc] z [CEGc] | z [B,E^GB] z [B,EGB] z [B,EGd] z [B,EGd] |1 %17
 z [A,CEA] z [A,CEA] z [A,CEA] z [G,B,DG] :|2 z [A,CEA] z [A,CEA] z [A,CEA] z [A,CEA] |: %19
 z [A,CEA] z [A,CEA] z [A,CEA] z [A,CEA] | z [A,CEA] z [A,CEA] z [A,CEA] z [A,CEA] | %21
 z [A,CEA] z [A,CEA] z [A,CEA] z [A,CEA] | z [B,E^GB] z [B,EGB] z [B,EGB] z [B,EGB] | %23
 z [B,E^GB] z [B,EGB] z [B,EGB] z [B,EGB] | z [B,E^GB] z [B,EGB] z [B,EGB] z [B,EGB] | %25
 z [B,E^GB] z [B,EGB] z [B,EGB] z [B,EGB] |1 z [A,CEA] z [A,CEA] z [A,CEA] z [A,CEA] :|2 %27
 z [A,CEA] z [A,CEA] z [A,CEA] z [A,CEA] |: [A,CEA] z z2 [A,CEA] z z2 | %29
 [A,CEA] z z [A,CEA] [A,CEA] z z2 | [A,CEA] z z2 [A,CEA] z z2 | [A,CEA] z z [A,CEA] [A,CEA] z z2 | %32
 [A,CEA] z z2 [A,CEA] z z2 | [A,DFd]2 z2 [^D^FA^d]2 z2 | [E^GBe] z z2 [EGBd] z z2 |1 %35
 [A,CEA] z z2 [A,CEA] z z2 :|2 [A,CEA] z z2 [A,CEA] z z2 |: %37
 z [A,CEA] z [A,CEA] z [A,CEA] z [A,CEA] | z [A,CEA] z [A,CEA] z [A,CEA] z [A,CEA] | %39
 z [A,CEA] z [A,CEA] z [A,CEA] z [A,CEA] | z [DFAd] z [DFAd] z [DFAd] z [DFAd] | %41
 z [DFAd] z [DFAd] z [DFAd] z [DFAd] | z [DFAd] z [DFAd] z [DFAd] z [DFAd] | %43
 z [E^GBd] z [EGBd] z [EGBd] z [EGBd] | [E^GBe] z [DGBe] z [CGBd] z [B,EGd] z :| [A,CEA]8 |] %46
V:3
 E,,^F,,^G,, | A,, z E,, z A,, z E,,^G,, | A,, z E,, z A,, z E,,^G,, | A,, z E,, z A,, z E,,^G,, | %4
 A,, z E,, z A,,E,,^F,,^G,, |: A,, z E,, z A,, z E,,^G,, | A,, z E,, z A,, z E,,^G,, | %7
 A,, z E,, z F,, z A,,D, |1 C, z A,, z B,, z E,,^G,, :|2 A,, z ^G,, z A,, z =G,, z |: %10
 C, z G,, z C, z G,, z | C, z G,, z C, z G,, z | C, z G,, z A,, z ^C, z | D, z A,, z D, z A,,^C, | %14
 D, z B,, z G,, z B,, z | C, z G,, z C, z E, z | E, z B,, z ^G,, z D, z |1 %17
 A,, z C, z G,, z B,, z :|2 A,, z C, z A,, z E,E,, |: A,, z C, z A,, z E,, z | %20
 A,, z C, z A,, z E,, z | A,, z C, z A,, z E,, z | ^G,, z B,, z D, z E,,G,, | %23
 B,, z D, z ^G,, z E,, z | B,, z D, z ^G,, z E,,G,, | B,, z E, z E,, z G,,B,, |1 %26
 A,, z E,, z A,, z E,,^G,, :|2 A,, z E,, z A,,E,,^F,,^G,, |: A,, z z E,, A,, z z E,, | %29
 A,, z z E,, A,, z z E,, | A,, z E,E,, A,, z z E,, | A,, z z E,, A,, z z E,, | %32
 A,, z E,E,, A,, z z E,, | F,,A,,D, z ^D,A,,^F,,^G,, | B,, z E, z B,, z ^G,, z |1 %35
 A,, z E,, z A,, z E,,^G,, :|2 A,, z C, z E, z E,, z |: A,, z E,, z A,, z E,,^G,, | %38
 A,, z C, z A,, z E,^G,, | A,, z E,, z A,, z C,^C, | D, z A,, z F, z A,,^C, | %41
 D, z A,, z D, z F,,A,, | D, z F, z D, z A,,^A,, | B,, z D, z B,, z ^G,, z | %44
 B,, z D, z B,, z E,,^G,, :| A,,8 |] %46

